X:1
T:Jog Along Till Shearing
M:2/4
L:1/8
K:D
 A| DD DD| DD DD| EE AA| F D2 D| EE EE| EE E2| AA Bd| c A2| A| AF dc|\
 BA A F/2F/2| GF GA| B A2 A| dd DD| DD FF| B,B, ED|D-CB,-A,| D2 D2|\
 D4| AA Bc| dd AG| F2 E2| D3||
